apps/nuxt3-ssr/assets/minified-icons/Star solid.svg

<svg viewBox="0 0 24 24" fill="none" xmlns="http://www.w3.org/2000/svg"><path d="M10.4863 4.11419C11.1607 2.95192 12.8392 2.95193 13.5136 4.11419L15.5789 7.67355C15.7693 8.00164 16.0984 8.22553 16.4734 8.28218L19.9031 8.80018C21.3981 9.02598 21.9225 10.9136 20.7582 11.8781L18.2593 13.9485C17.9085 14.239 17.7436 14.6974 17.8288 15.1449L18.5288 18.8208C18.803 20.2608 17.2914 21.3796 15.9944 20.6966L12.5823 18.9001C12.2178 18.7081 11.7821 18.7081 11.4176 18.9001L8.00554 20.6966C6.70853 21.3796 5.1969 20.2608 5.4711 18.8208L6.17108 15.1449C6.25628 14.6974 6.09136 14.239 5.74062 13.9485L3.24172 11.8781C2.07744 10.9136 2.60184 9.02598 4.09683 8.80018L7.52648 8.28218C7.90154 8.22553 8.23059 8.00164 8.42097 7.67355L10.4863 4.11419Z" fill="currentColor"/></svg>

<svg fill="none" xmlns="http://www.w3.org/2000/svg" viewBox="0 0 24 24"><path d="M10.486 4.114c.675-1.162 2.353-1.162 3.028 0l2.065 3.56c.19.328.52.552.894.608l3.43.518c1.495.226 2.02 2.114.855 3.078l-2.499 2.07a1.25 1.25 0 0 0-.43 1.197l.7 3.676c.274 1.44-1.238 2.559-2.535 1.876L12.582 18.9a1.25 1.25 0 0 0-1.164 0l-3.412 1.797c-1.297.683-2.81-.436-2.535-1.876l.7-3.676a1.25 1.25 0 0 0-.43-1.197l-2.5-2.07c-1.164-.964-.64-2.852.856-3.078l3.43-.518a1.25 1.25 0 0 0 .894-.608l2.065-3.56Z" fill="currentColor"/></svg>
